X:757
T:North Hunt, The
R:Strathspey
C:Capt. Simon Fraser
N: This tune and "The Rendezvous" "form a medley,
N: complimentary to the Northern Meeting"
B:The Athole Collection
M:C
L:1/8
K:G
g|d<B d>B c>AF>D|d<G d>B G<gd<b|g>c B<e E<AF<D|E<E D>F G2G,:|
g|d<B g>B A<a a>f|d<B g>B d<gB<g|d<B g>B A<a a>f|(3dgb (3agf ~g2 ge|
d<B g>B c>A F<D|B,D/G/ G<d B<gd<b|g>c B<e E<AF<D|E>ED>F G2G,||

